assets/Person with veil/Medium-Light/Flat/person_with_veil_flat_medium-light.svg

<svg width="32" height="32" viewBox="0 0 32 32" fill="none" xmlns="http://www.w3.org/2000/svg">
<path d="M27 16.9999C27 8.03994 22.598 5.18994 22.598 5.18994L16 11.6899L9.40199 5.19C9.40199 5.19 5 8.04 5 17V30L27 29.9999V16.9999Z" fill="#E6E6E6"/>
<path d="M21.85 12H10.13V22.56H21.85V12Z" fill="#D3D3D3"/>
<path d="M8.97485 20.5368C10.2567 19.4723 11.7844 18.6941 13.4601 18.3002C13.7401 18.2402 13.9401 17.9802 13.9401 17.6902V14.7302C13.9401 13.6002 14.8401 12.6902 15.9601 12.6702C17.1201 12.6502 18.0601 13.6202 18.0601 14.7702V17.6902C18.0601 17.9802 18.2601 18.2302 18.5401 18.3002C20.1333 18.678 21.5928 19.4012 22.8344 20.3863C21.3064 21.9645 18.739 23 15.8294 23C13.0133 23 10.5177 22.03 8.97485 20.5368Z" fill="#E4B29A"/>
<path d="M27 28.9998C27 25.5798 25.44 22.5198 22.99 20.5098C21.46 22.5098 19.09 23.6798 16.58 23.6798H16H15.43C12.91 23.6798 10.54 22.5098 9.02 20.5098C6.57 22.5198 5 25.5698 5 28.9998V29.9998H27V28.9998Z" fill="#F4F4F4"/>
<path d="M8.71426 20.0965C9.09736 19.6987 9.73042 19.6868 10.1282 20.0699L10.1313 20.0729C10.3667 20.2992 10.4672 20.613 10.4309 20.914C10.7143 20.8053 11.0435 20.8264 11.3206 20.9999L11.328 21.0044C11.6059 21.178 11.7691 21.4658 11.7948 21.769C12.051 21.6043 12.3789 21.5583 12.6861 21.6731L12.6943 21.6761C13.002 21.7907 13.2199 22.0407 13.3054 22.3334C13.5241 22.1207 13.837 22.0105 14.1613 22.0624L14.1699 22.0638C14.4944 22.1154 14.7574 22.3177 14.899 22.588C15.0716 22.3364 15.3568 22.1666 15.6851 22.1538L15.6911 22.1536C15.7938 22.1495 15.8934 22.1611 15.9878 22.1861C16.0798 22.1537 16.1782 22.1343 16.2809 22.1302L16.2842 22.1301C16.3869 22.126 16.4865 22.1376 16.5809 22.1626C16.6729 22.1302 16.7713 22.1108 16.874 22.1067L16.8795 22.1065C17.1547 22.0955 17.4084 22.1967 17.5963 22.3694C17.7344 22.1548 17.9543 21.9927 18.2233 21.9338L18.2309 21.9321C18.4997 21.873 18.7671 21.9281 18.9824 22.065C19.0806 21.8296 19.2683 21.6315 19.5225 21.5261L19.5297 21.5232C19.7835 21.4177 20.0559 21.4246 20.2917 21.521C20.3465 21.2724 20.4955 21.0446 20.7262 20.8957L20.7327 20.8915C20.9628 20.7428 21.2311 20.7005 21.4796 20.7523C21.4883 20.4989 21.5928 20.2486 21.7915 20.0605L21.7943 20.0579C22.1951 19.678 22.828 19.6949 23.208 20.0957C23.5879 20.4966 23.571 21.1295 23.1701 21.5094L23.1666 21.5128C22.9196 21.7466 22.5847 21.8299 22.2752 21.7658C22.264 22.0814 22.1039 22.3866 21.8186 22.5711L21.8104 22.5764C21.5254 22.7602 21.182 22.7808 20.8901 22.6618C20.822 22.9694 20.6101 23.24 20.2971 23.3701L20.2881 23.3738C19.9753 23.5034 19.6344 23.4625 19.3687 23.2939C19.2473 23.5841 18.9912 23.8127 18.6606 23.8854L18.6511 23.8875C18.3205 23.9599 17.9923 23.8597 17.7605 23.6471C17.59 23.9114 17.2979 24.0913 16.9597 24.1049L16.9532 24.1051C16.8505 24.1092 16.7509 24.0977 16.6565 24.0726C16.5645 24.105 16.4661 24.1244 16.3634 24.1285L16.36 24.1286C16.2574 24.1327 16.1578 24.1212 16.0634 24.0961C15.9714 24.1285 15.873 24.1479 15.7703 24.152L15.7632 24.1523C15.3646 24.1679 15.0115 23.948 14.8379 23.6168C14.6263 23.9251 14.2496 24.1016 13.8557 24.039L13.8449 24.0372C13.451 23.9741 13.148 23.689 13.0429 23.3301C12.7746 23.5908 12.3703 23.6896 11.9964 23.5504L11.9862 23.5466C11.6121 23.4068 11.3711 23.0669 11.3394 22.6938C11.0241 22.8963 10.6075 22.9125 10.2685 22.7008L10.2592 22.695C9.91998 22.4826 9.75208 22.1 9.79693 21.7273C9.44605 21.8618 9.03362 21.7921 8.74486 21.5143L8.74089 21.5105C8.34308 21.1274 8.33116 20.4943 8.71426 20.0965Z" fill="#E4B29A"/>
<path d="M23.22 23.8838C22.34 23.8938 21.61 24.6338 21.61 25.5338V25.6307C21.5447 25.6383 21.4798 25.6497 21.4156 25.665C21.2939 25.1882 20.8013 24.7972 20.1601 24.8038L11.7601 24.9038C11.1626 24.91 10.7056 25.2575 10.5594 25.6895C10.5033 25.6771 10.4468 25.6676 10.39 25.661V25.5636C10.39 24.6636 9.66004 23.9236 8.78004 23.9136H7.69004C7.64004 23.9136 7.59004 23.9636 7.60004 24.0136C7.64941 25.0009 8.45921 25.8031 9.4615 25.8232C9.31967 25.8947 9.18733 25.9883 9.07002 26.1037L8.30002 26.8737C8.26002 26.9137 8.26002 26.9737 8.30002 27.0137C9.05002 27.6837 10.21 27.6737 10.92 26.9537L10.9562 26.9176L13.0937 30H18.9448L21.0036 26.8471L21.08 26.9234C21.79 27.6434 22.95 27.6534 23.7 26.9834C23.74 26.9434 23.74 26.8834 23.7 26.8434L22.93 26.0734C22.813 25.9583 22.6809 25.8649 22.5395 25.7934C23.5413 25.7728 24.3506 24.9709 24.4 23.9838C24.41 23.9338 24.36 23.8838 24.31 23.8838H23.22Z" fill="#44911B"/>
<path d="M14.0601 25.2334L11.3501 26.3534L10.6901 24.7434C10.2801 23.7334 10.2801 22.6034 10.7101 21.5934C10.7901 21.4134 11.0001 21.3234 11.1801 21.4034C12.1801 21.8134 12.9801 22.6134 13.3901 23.6134L14.0601 25.2334Z" fill="#F70A8D"/>
<path d="M18.23 25.3335L20.94 26.4535L21.6 24.8435C22.01 23.8335 22.01 22.7035 21.58 21.6935C21.5 21.5135 21.29 21.4235 21.11 21.5035C20.11 21.9135 19.31 22.7135 18.9 23.7135L18.23 25.3335Z" fill="#F70A8D"/>
<path d="M8.63418 22.2558C8.51219 22.3145 8.46137 22.4809 8.53252 22.6375L9.26443 24.3504C9.46774 24.8202 9.86419 25.476 10.1996 25.7893C11.0129 26.5821 11.9989 26.6702 12.9341 26.2982C13.9507 25.8969 14.5911 25.0356 14.4894 23.8121C14.4691 23.5184 14.2963 22.9703 14.1946 22.6767C14.1743 22.6228 14.154 22.5714 14.1337 22.5201C14.1133 22.4687 14.093 22.4173 14.0727 22.3634L13.3712 20.7191C13.3001 20.5624 13.1476 20.4744 13.0155 20.5233C12.1209 20.8757 11.8871 22.4417 12.0802 23.8121C12.1107 24.047 11.8668 24.1547 11.7143 23.9589C10.8502 22.8528 9.52873 21.8936 8.63418 22.2558Z" fill="#FF6DC6"/>
<path d="M23.3658 22.3559C23.4878 22.4146 23.5386 22.581 23.4675 22.7376L22.7356 24.4505C22.5323 24.9203 22.1358 25.5761 21.8004 25.8894C20.9871 26.6822 20.0011 26.7703 19.0659 26.3983C18.0493 25.997 17.4089 25.1357 17.5106 23.9122C17.5309 23.6185 17.7037 23.0704 17.8054 22.7768C17.8257 22.7229 17.846 22.6715 17.8664 22.6201C17.8867 22.5687 17.907 22.5174 17.9273 22.4635L18.6288 20.8192C18.6999 20.6625 18.8524 20.5745 18.9845 20.6234C19.8791 20.9758 20.1129 22.5418 19.9198 23.9122C19.8893 24.1471 20.1332 24.2548 20.2857 24.059C21.1498 22.9529 22.4713 21.9937 23.3658 22.3559Z" fill="#FF6DC6"/>
<path d="M12.7794 23.1586C12.9297 22.481 13.621 22.0866 14.2823 22.299L14.8734 22.4911L14.8233 21.8944C14.7632 21.2168 15.2841 20.6201 15.9654 20.61C16.6567 20.5999 17.2077 21.1865 17.1476 21.8742L17.1075 22.4406L17.6786 22.2282C18.3198 21.9855 19.0311 22.3597 19.2115 23.0373C19.3818 23.6947 18.971 24.3723 18.2998 24.4936L17.7788 24.5948L18.2196 25.1207C18.6605 25.6466 18.5603 26.4557 17.9992 26.8501C17.4382 27.2446 16.6767 27.0726 16.3261 26.486L16.0556 26.0613L15.8452 26.4962C15.5246 27.0929 14.7632 27.2951 14.1921 26.9209C13.611 26.5467 13.4808 25.7477 13.9015 25.2016L14.3123 24.6656L13.7412 24.5847C13.07 24.4835 12.6292 23.8261 12.7794 23.1586Z" fill="#FFF478"/>
<path d="M16.0601 25C16.6123 25 17.0601 24.5523 17.0601 24C17.0601 23.4477 16.6123 23 16.0601 23C15.5078 23 15.0601 23.4477 15.0601 24C15.0601 24.5523 15.5078 25 16.0601 25Z" fill="#FFB02E"/>
<path d="M22.25 5.29C21.95 4.77 21.48 4.41 20.96 4.23C20.39 4.04 19.89 3.66 19.58 3.15C19.16 2.46 18.4 2 17.54 2C17.21 2 16.89 2.07 16.61 2.19C16.22 2.36 15.78 2.36 15.39 2.19C15.1 2.07 14.79 2 14.46 2C13.61 2 12.86 2.44 12.44 3.11C12.11 3.63 11.62 4.03 11.03 4.23C10.48 4.42 10 4.81 9.71004 5.36C9.28004 6.16 9.37004 7.12 9.86004 7.83C10.03 8.09 10.13 8.4 10.13 8.71V12.88C10.13 13.81 10.72 14.63 11.6 14.94L13.49 15.59V8.17C13.64 8.03 13.76 7.86 13.87 7.67C14.04 7.38 14.14 7.06 14.17 6.75C14.26 6.76 14.36 6.77 14.45 6.77C15.04 6.77 15.58 6.56 15.99 6.2C16.41 6.55 16.94 6.77 17.53 6.77C17.63 6.77 17.72 6.76 17.81 6.75C17.85 7.07 17.94 7.38 18.11 7.67C18.22 7.86 18.35 8.02 18.49 8.17V15.6L20.38 14.95C21.26 14.65 21.85 13.82 21.85 12.89V8.72C21.85 8.41 21.95 8.1 22.13 7.84C22.65 7.1 22.72 6.11 22.25 5.29Z" fill="#FFF9BA"/>
<path d="M12.7701 10.5899C12.7701 11.5122 12.0224 12.2599 11.1001 12.2599C10.1777 12.2599 9.43005 11.5122 9.43005 10.5899C9.43005 9.66761 10.1777 8.91992 11.1001 8.91992C12.0224 8.91992 12.7701 9.66761 12.7701 10.5899Z" fill="#E4B29A"/>
<path d="M22.56 10.5899C22.56 11.5122 21.8123 12.2599 20.89 12.2599C19.9677 12.2599 19.22 11.5122 19.22 10.5899C19.22 9.66761 19.9677 8.91992 20.89 8.91992C21.8123 8.91992 22.56 9.66761 22.56 10.5899Z" fill="#E4B29A"/>
<path d="M10.75 8.18812C10.8253 6.41802 12.3341 5 14.1775 5H15.4852C15.7669 5 16.0084 5.16585 16.119 5.40976C16.5214 6.27805 17.4167 6.82439 18.3925 6.82439H19.8311C20.6359 6.86341 21.2697 7.51707 21.2495 8.30731L21.2375 8.80981L20.9276 13.6439C20.6559 15.5659 18.976 17 16.974 17H15.0627C13.0708 17 11.3808 15.5659 11.1192 13.6439L10.75 8.18812Z" fill="#EEBFAA"/>
<path d="M16.0005 13.7057C15.45 13.7057 14.9301 13.5669 14.4918 13.3212C14.3389 13.2358 14.186 13.4174 14.2777 13.5669C14.6447 14.1542 15.2767 14.5493 16.0005 14.5493C16.7243 14.5493 17.3563 14.1542 17.7233 13.5669C17.8151 13.4174 17.652 13.2465 17.5093 13.3212C17.0607 13.5669 16.551 13.7057 16.0005 13.7057Z" fill="#990838"/>
<path d="M12.18 10.2802C12.33 9.6602 12.89 9.2002 13.56 9.2002C14.26 9.2002 14.83 9.6902 14.96 10.3502C14.99 10.5002 14.88 10.6302 14.73 10.6302H12.45C12.27 10.6302 12.13 10.4502 12.18 10.2802Z" fill="white"/>
<path d="M19.83 10.2802C19.68 9.6602 19.12 9.2002 18.45 9.2002C17.75 9.2002 17.18 9.6902 17.05 10.3502C17.02 10.5002 17.13 10.6302 17.28 10.6302H19.56C19.74 10.6302 19.87 10.4602 19.83 10.2802Z" fill="white"/>
<path d="M12.86 10.39C12.86 9.88998 13.27 9.47998 13.77 9.47998C14.28 9.47998 14.69 9.88998 14.68 10.39C14.68 10.47 14.67 10.55 14.65 10.63H12.89C12.87 10.55 12.86 10.47 12.86 10.39Z" fill="#7D4533"/>
<path d="M19.15 10.39C19.15 9.88998 18.74 9.47998 18.24 9.47998C17.73 9.47998 17.33 9.88998 17.33 10.39C17.33 10.47 17.34 10.55 17.36 10.63H19.12C19.14 10.55 19.15 10.47 19.15 10.39Z" fill="#7D4533"/>
<path d="M13.77 9.87012C14.06 9.87012 14.29 10.1001 14.29 10.3901C14.29 10.4801 14.27 10.5601 14.23 10.6301H13.31C13.27 10.5601 13.25 10.4801 13.25 10.3901C13.25 10.1001 13.48 9.87012 13.77 9.87012Z" fill="black"/>
<path d="M18.24 9.87012C17.95 9.87012 17.72 10.1001 17.72 10.3901C17.72 10.4801 17.74 10.5601 17.78 10.6301H18.7C18.74 10.5601 18.76 10.4801 18.76 10.3901C18.76 10.1001 18.53 9.87012 18.24 9.87012Z" fill="black"/>
<path d="M13.62 10.0199C13.62 10.1082 13.5484 10.1799 13.46 10.1799C13.3717 10.1799 13.3 10.1082 13.3 10.0199C13.3 9.9315 13.3717 9.85986 13.46 9.85986C13.5484 9.85986 13.62 9.9315 13.62 10.0199Z" fill="white"/>
<path d="M18.12 10.0199C18.12 10.1082 18.0484 10.1799 17.96 10.1799C17.8717 10.1799 17.8 10.1082 17.8 10.0199C17.8 9.9315 17.8717 9.85986 17.96 9.85986C18.0484 9.85986 18.12 9.9315 18.12 10.0199Z" fill="white"/>
<path d="M15.6541 10.2897L15.1583 12.0282C15.0554 12.384 15.2986 12.75 15.6447 12.75H16.3743C16.7204 12.75 16.9636 12.384 16.8607 12.0282L16.365 10.2897C16.2621 9.90342 15.7663 9.90342 15.6541 10.2897Z" fill="#D19479"/>
<path d="M12.3451 8.42675C12.3916 8.45985 12.4473 8.4776 12.5044 8.47752C12.5662 8.47719 12.6261 8.45605 12.6744 8.41752C13.1162 8.1244 13.6481 7.99852 14.1744 8.06252C14.21 8.0671 14.2461 8.06448 14.2806 8.0548C14.3151 8.04513 14.3473 8.0286 14.3753 8.0062C14.4033 7.9838 14.4265 7.956 14.4436 7.92444C14.4606 7.89288 14.4711 7.85822 14.4744 7.82252C14.4817 7.75118 14.4608 7.67981 14.4161 7.62372C14.3715 7.56763 14.3066 7.5313 14.2354 7.52252C13.5663 7.43577 12.8888 7.60156 12.3354 7.98752C12.2904 8.02264 12.2575 8.07095 12.2413 8.1257C12.225 8.18044 12.2263 8.23888 12.245 8.29286C12.2636 8.34683 12.2986 8.39364 12.3451 8.42675Z" fill="#A56953"/>
<path d="M19.3464 8.42152C19.3941 8.45778 19.4524 8.47745 19.5124 8.47752C19.5695 8.47795 19.6264 8.46044 19.673 8.42746C19.7197 8.39449 19.7548 8.3477 19.7735 8.2937C19.7921 8.2397 19.7934 8.1812 19.7771 8.12645C19.7607 8.0717 19.7276 8.02346 19.6824 7.98852C19.1283 7.60389 18.4515 7.4379 17.7824 7.52252C17.7119 7.53297 17.6483 7.57045 17.605 7.62703C17.5617 7.6836 17.5421 7.75482 17.5505 7.82557C17.5588 7.89632 17.5943 7.96105 17.6496 8.00603C17.7048 8.05101 17.7754 8.07271 17.8464 8.06652C18.3728 8.00144 18.905 8.12741 19.3464 8.42152Z" fill="#A56953"/>
<path d="M8.99214 7.31C8.83381 7.31 8.67549 7.26 8.53695 7.15C8.21041 6.9 8.15103 6.42 8.40831 6.1C8.50727 5.97 10.8624 3 15.998 3C21.1337 3 23.4888 5.97 23.5878 6.1C23.8451 6.43 23.7857 6.9 23.4591 7.15C23.1326 7.4 22.6675 7.35 22.4201 7.02C22.4102 7 21.8957 6.37 20.8666 5.76C19.4713 4.93 17.8386 4.5 15.998 4.5C14.1575 4.5 12.5248 4.93 11.1295 5.76C10.0905 6.38 9.57596 7.02 9.57596 7.02C9.42753 7.21 9.20984 7.31 8.99214 7.31Z" fill="#D3D3D3"/>
</svg>

<svg xmlns="http://www.w3.org/2000/svg" width="32" height="32" fill="none"><path fill="#E6E6E6" d="M27 17c0-8.96-4.402-11.81-4.402-11.81L16 11.69l-6.598-6.5S5 8.04 5 17v13h22V17Z"/><path fill="#D3D3D3" d="M21.85 12H10.13v10.56h11.72V12Z"/><path fill="#E4B29A" d="M8.975 20.537A10.937 10.937 0 0 1 13.46 18.3c.28-.06.48-.32.48-.61v-2.96c0-1.13.9-2.04 2.02-2.06 1.16-.02 2.1.95 2.1 2.1v2.92c0 .29.2.54.48.61a10.986 10.986 0 0 1 4.294 2.086C21.306 21.965 18.74 23 15.83 23c-2.816 0-5.311-.97-6.854-2.463Z"/><path fill="#F4F4F4" d="M27 29c0-3.42-1.56-6.48-4.01-8.49-1.53 2-3.9 3.17-6.41 3.17h-1.15c-2.52 0-4.89-1.17-6.41-3.17A10.949 10.949 0 0 0 5 29v1h22v-1Z"/><path fill="#E4B29A" d="M8.714 20.096a1 1 0 0 1 1.414-.026l.003.003c.236.226.336.54.3.841a.999.999 0 0 1 .89.086l.007.004a.999.999 0 0 1 .467.765.998.998 0 0 1 .891-.096l.008.003a.998.998 0 0 1 .611.657.999.999 0 0 1 .856-.27h.009a.998.998 0 0 1 .729.525.999.999 0 0 1 .786-.434h.006a1 1 0 0 1 .297.032c.092-.032.19-.052.293-.056h.003a1 1 0 0 1 .297.033c.092-.033.19-.052.293-.056h.006a.997.997 0 0 1 .716.262.997.997 0 0 1 .627-.435l.008-.002a.997.997 0 0 1 .751.133.997.997 0 0 1 .54-.539l.008-.003a.996.996 0 0 1 .762-.002.997.997 0 0 1 .434-.625l.007-.005a.997.997 0 0 1 .747-.139.997.997 0 0 1 .311-.691l.003-.003a1 1 0 0 1 1.376 1.451l-.003.004a1 1 0 0 1-.892.253 1 1 0 0 1-.456.805l-.009.005a.999.999 0 0 1-.92.086 1 1 0 0 1-.593.708l-.009.004a.999.999 0 0 1-.92-.08.999.999 0 0 1-.707.591l-.01.002a.999.999 0 0 1-.89-.24.999.999 0 0 1-.801.458h-.007a.998.998 0 0 1-.296-.032c-.093.032-.19.051-.294.055h-.003a.997.997 0 0 1-.297-.032c-.092.032-.19.052-.293.056h-.007a1 1 0 0 1-.925-.535 1 1 0 0 1-.982.422l-.011-.002a1 1 0 0 1-.802-.707 1 1 0 0 1-1.047.22l-.01-.003a1 1 0 0 1-.647-.853 1 1 0 0 1-1.07.007l-.01-.006a1 1 0 0 1-.462-.968 1 1 0 0 1-1.052-.213l-.004-.003a1 1 0 0 1-.027-1.415Z"/><path fill="#44911B" d="M23.22 23.884c-.88.01-1.61.75-1.61 1.65v.097c-.065.007-.13.019-.194.034-.122-.477-.615-.868-1.256-.861l-8.4.1c-.597.006-1.054.354-1.2.785a1.687 1.687 0 0 0-.17-.028v-.097c0-.9-.73-1.64-1.61-1.65H7.69c-.05 0-.1.05-.09.1.05.987.86 1.79 1.861 1.81a1.557 1.557 0 0 0-.391.28l-.77.77c-.04.04-.04.1 0 .14.75.67 1.91.66 2.62-.06l.036-.036L13.094 30h5.85l2.06-3.153.076.076c.71.72 1.87.73 2.62.06.04-.04.04-.1 0-.14l-.77-.77a1.56 1.56 0 0 0-.39-.28 1.91 1.91 0 0 0 1.86-1.81c.01-.05-.04-.1-.09-.1h-1.09Z"/><path fill="#F70A8D" d="m14.06 25.233-2.71 1.12-.66-1.61c-.41-1.01-.41-2.14.02-3.15a.36.36 0 0 1 .47-.19c1 .41 1.8 1.21 2.21 2.21l.67 1.62ZM18.23 25.334l2.71 1.12.66-1.61c.41-1.01.41-2.14-.02-3.15a.36.36 0 0 0-.47-.19c-1 .41-1.8 1.21-2.21 2.21l-.67 1.62Z"/><path fill="#FF6DC6" d="M8.634 22.256c-.122.058-.173.225-.101.381l.731 1.713c.204.47.6 1.126.936 1.44.813.792 1.799.88 2.734.508 1.017-.401 1.657-1.262 1.555-2.486-.02-.294-.193-.842-.294-1.135a9.985 9.985 0 0 0-.061-.157 9.424 9.424 0 0 1-.061-.157l-.702-1.644c-.07-.157-.223-.245-.356-.196-.894.353-1.128 1.919-.935 3.29.03.234-.213.342-.366.146-.864-1.106-2.185-2.065-3.08-1.703ZM23.366 22.356c.122.059.173.225.102.382l-.732 1.713c-.204.47-.6 1.125-.936 1.438-.813.793-1.799.881-2.734.51-1.017-.402-1.657-1.263-1.555-2.487.02-.293.193-.842.294-1.135l.061-.157.061-.157.702-1.644c.07-.156.223-.244.355-.196.895.353 1.129 1.919.936 3.29-.03.234.213.342.366.146.864-1.106 2.185-2.065 3.08-1.703Z"/><path fill="#FFF478" d="M12.78 23.159a1.166 1.166 0 0 1 1.502-.86l.591.192-.05-.597a1.166 1.166 0 1 1 2.324-.02l-.04.567.572-.213c.64-.243 1.352.132 1.533.81.17.657-.241 1.334-.912 1.456l-.521.1.44.527c.441.526.341 1.335-.22 1.73a1.162 1.162 0 0 1-1.673-.365l-.27-.425-.21.435a1.156 1.156 0 0 1-1.654.425 1.188 1.188 0 0 1-.29-1.72l.41-.535-.57-.081a1.176 1.176 0 0 1-.963-1.426Z"/><path fill="#FFB02E" d="M16.06 25a1 1 0 1 0 0-2 1 1 0 0 0 0 2Z"/><path fill="#FFF9BA" d="M22.25 5.29c-.3-.52-.77-.88-1.29-1.06a2.56 2.56 0 0 1-1.38-1.08 2.377 2.377 0 0 0-2.97-.96c-.39.17-.83.17-1.22 0-.29-.12-.6-.19-.93-.19-.85 0-1.6.44-2.02 1.11-.33.52-.82.92-1.41 1.12-.55.19-1.03.58-1.32 1.13-.43.8-.34 1.76.15 2.47.17.26.27.57.27.88v4.17c0 .93.59 1.75 1.47 2.06l1.89.65V8.17c.15-.14.27-.31.38-.5.17-.29.27-.61.3-.92a2.32 2.32 0 0 0 1.82-.55c.42.35.95.57 1.54.57.1 0 .19-.01.28-.02a2.373 2.373 0 0 0 .68 1.42v7.43l1.89-.65c.88-.3 1.47-1.13 1.47-2.06V8.72c0-.31.1-.62.28-.88.52-.74.59-1.73.12-2.55Z"/><path fill="#E4B29A" d="M12.77 10.59a1.67 1.67 0 1 1-3.34 0 1.67 1.67 0 0 1 3.34 0ZM22.56 10.59a1.67 1.67 0 1 1-3.34 0 1.67 1.67 0 0 1 3.34 0Z"/><path fill="#EEBFAA" d="M10.75 8.188C10.825 6.418 12.334 5 14.178 5h1.307c.282 0 .523.166.634.41.402.868 1.298 1.414 2.273 1.414h1.44c.804.04 1.438.693 1.418 1.483l-.012.503-.31 4.834C20.656 15.566 18.976 17 16.974 17h-1.911c-1.992 0-3.682-1.434-3.944-3.356l-.369-5.456Z"/><path fill="#990838" d="M16 13.706c-.55 0-1.07-.14-1.508-.385-.153-.085-.306.096-.214.246.367.587.999.982 1.722.982.724 0 1.356-.395 1.723-.982.092-.15-.071-.32-.214-.246a3.118 3.118 0 0 1-1.509.385Z"/><path fill="#fff" d="M12.18 10.28c.15-.62.71-1.08 1.38-1.08.7 0 1.27.49 1.4 1.15a.23.23 0 0 1-.23.28h-2.28c-.18 0-.32-.18-.27-.35ZM19.83 10.28c-.15-.62-.71-1.08-1.38-1.08-.7 0-1.27.49-1.4 1.15-.03.15.08.28.23.28h2.28c.18 0 .31-.17.27-.35Z"/><path fill="#7D4533" d="M12.86 10.39c0-.5.41-.91.91-.91a.9.9 0 0 1 .91.91c0 .08-.01.16-.03.24h-1.76a.986.986 0 0 1-.03-.24ZM19.15 10.39c0-.5-.41-.91-.91-.91-.51 0-.91.41-.91.91 0 .08.01.16.03.24h1.76c.02-.08.03-.16.03-.24Z"/><path fill="#000" d="M13.77 9.87a.516.516 0 0 1 .46.76h-.92a.516.516 0 0 1 .46-.76ZM18.24 9.87a.516.516 0 0 0-.46.76h.92a.516.516 0 0 0-.46-.76Z"/><path fill="#fff" d="M13.62 10.02a.16.16 0 1 1-.32 0 .16.16 0 0 1 .32 0ZM18.12 10.02a.16.16 0 1 1-.32 0 .16.16 0 0 1 .32 0Z"/><path fill="#D19479" d="m15.654 10.29-.496 1.738c-.103.356.14.722.487.722h.73c.345 0 .589-.366.486-.722l-.496-1.738c-.103-.387-.599-.387-.71 0Z"/><path fill="#A56953" d="M12.345 8.427a.274.274 0 0 0 .33-.01 2.227 2.227 0 0 1 1.5-.354.267.267 0 0 0 .3-.24.274.274 0 0 0-.24-.3 2.712 2.712 0 0 0-1.9.465.274.274 0 0 0 .01.439ZM19.346 8.422a.275.275 0 0 0 .327.005.273.273 0 0 0 .01-.438 2.731 2.731 0 0 0-1.9-.466.274.274 0 0 0 .063.544 2.215 2.215 0 0 1 1.5.355Z"/><path fill="#D3D3D3" d="M8.992 7.31a.723.723 0 0 1-.455-.16.745.745 0 0 1-.129-1.05c.1-.13 2.454-3.1 7.59-3.1 5.136 0 7.49 2.97 7.59 3.1.257.33.198.8-.129 1.05a.734.734 0 0 1-1.039-.13c-.01-.02-.524-.65-1.553-1.26-1.396-.83-3.028-1.26-4.869-1.26-1.84 0-3.473.43-4.868 1.26-1.04.62-1.554 1.26-1.554 1.26a.742.742 0 0 1-.584.29Z"/></svg>
